X:2
T:Jeepers Creepers
C:Mercer & Warren
L:1/4
M:C
I:linebreak $
K:Bb
"Eø" d2"Ebo" c2 |"Dm" c2"Dbo" B2 |"Cm" z/ c c/"B7" B A |"Bb6" G2"Gm" F2 |$
"Eø" d2"Ebo" c2 Ox/||"Dm" c2"Dbo" B2 |"Cm" z/ c c/"B7" B A |"Bb6" B2"Fo" z2 :|$
[K:Eb]"Fm" B2"Fo" G2 |"Gm" B2"Gb7" z2 |"Fm" z/ B A/"E7" G F |"Eb" D E"Cm" C2 ||$
[K:F]"Gm" c2"Go" A2 |"Am" c2"Ab7" z2 |"Gm" z/ c B/"Gb7" A G |"F4" G A"F7" "_D.C. al Coda" F2 ||$
Ox/"Dø" c2"Db7" =B2 |"Cm" z/ c c/"Co" B A |"Gm" B2"Db7" _d2 |"Cm" z/ c c/"B7" B A |"Bb6" B4 |]

